X: 88
T:Lancashire Quadrilles,#3. JNu.48
M:2/4
L:1/16
Q:80
S:James Nuttall MS,c1830,Rossendale,East Lancs.
R:Quadrille
O:England
A:East Lancashire
Z:vmp.Manchester Morris Men
K:Bb
dc|BABd cBAG|FGAF B2Bc|dcBA Bcde|fgfd c2dc|!
BABd cBAc|Bcde fgfe|dcBd cBAc|B2df b2||!
F2|BFBd cBAG|FGAF B2(3Bcd|(3ede (3gfe d2b2|af=eg f_edc|!
BFBd cBAG|FAcA Bcde|fbge dfec|(3BAB(3cBA B2||!
A2|G3^F G>AB>c|d3c B>AB>c|c4 c>de>c|d3 c B>AG>_G|!
G3A B>AB>c|d3c B>AB>c|d2e2 d>cB>A|G6F2|]
